X: 3351
T: Bells Of Lismore, The
R: jig
M: 6/8
K: Gmajor
|:~G3 GAB|deg e2d|~B3 dBG|DAA cBA|
~G3 GAB|deg e2d|~B3 dBG|1 DFA G2D:|2 DFA GBd||
~g3 edB|deg e2d|~B3 dBG|DAA ABd|
~g3 edB|deg e2d|~B3 dBG|DFA GBd|
~g3 edB|deg e2d|~B3 dBG|DAA cBA|
~G3 GAB|deg e2d|~B3 dBG|DFA G2D||

